icons/circle/48/gtick.svg

<svg xmlns="http://www.w3.org/2000/svg" viewBox="0 0 48 48">
 <defs>
  <linearGradient id="linearGradient3003" y1="1" x2="0" y2="47" gradientUnits="userSpaceOnUse">
   <stop style="stop-color:#eb892d;stop-opacity:1"/>
   <stop offset="1" style="stop-color:#e97f1b;stop-opacity:1"/>
  </linearGradient>
  <linearGradient id="linearGradient3073" x1="37" y1="14" x2="14" y2="25" gradientUnits="userSpaceOnUse">
   <stop style="stop-color:#dcdcdc;stop-opacity:0.706"/>
   <stop offset="1" style="stop-color:#969696;stop-opacity:0"/>
  </linearGradient>
 </defs>
 <g>
  <path d="m 36.31 5 c 5.859 4.062 9.688 10.831 9.688 18.5 c 0 12.426 -10.07 22.5 -22.5 22.5 c -7.669 0 -14.438 -3.828 -18.5 -9.688 c 1.037 1.822 2.306 3.499 3.781 4.969 c 4.085 3.712 9.514 5.969 15.469 5.969 c 12.703 0 23 -10.298 23 -23 c 0 -5.954 -2.256 -11.384 -5.969 -15.469 c -1.469 -1.475 -3.147 -2.744 -4.969 -3.781 z m 4.969 3.781 c 3.854 4.113 6.219 9.637 6.219 15.719 c 0 12.703 -10.297 23 -23 23 c -6.081 0 -11.606 -2.364 -15.719 -6.219 c 4.16 4.144 9.883 6.719 16.219 6.719 c 12.703 0 23 -10.298 23 -23 c 0 -6.335 -2.575 -12.06 -6.719 -16.219 z" style="opacity:0.05"/>
  <path d="m 41.28 8.781 c 3.712 4.085 5.969 9.514 5.969 15.469 c 0 12.703 -10.297 23 -23 23 c -5.954 0 -11.384 -2.256 -15.469 -5.969 c 4.113 3.854 9.637 6.219 15.719 6.219 c 12.703 0 23 -10.298 23 -23 c 0 -6.081 -2.364 -11.606 -6.219 -15.719 z" style="opacity:0.1"/>
  <path d="m 31.25 2.375 c 8.615 3.154 14.75 11.417 14.75 21.13 c 0 12.426 -10.07 22.5 -22.5 22.5 c -9.708 0 -17.971 -6.135 -21.12 -14.75 a 23 23 0 0 0 44.875 -7 a 23 23 0 0 0 -16 -21.875 z" style="opacity:0.2"/>
 </g>
 <g style="fill:url(#linearGradient3003);fill-opacity:1">
  <path d="m 24 1 c 12.703 0 23 10.297 23 23 c 0 12.703 -10.297 23 -23 23 -12.703 0 -23 -10.297 -23 -23 0 -12.703 10.297 -23 23 -23 z"/>
 </g>
 <g>
  <path d="m 40.03 7.531 c 3.712 4.084 5.969 9.514 5.969 15.469 0 12.703 -10.297 23 -23 23 c -5.954 0 -11.384 -2.256 -15.469 -5.969 4.178 4.291 10.01 6.969 16.469 6.969 c 12.703 0 23 -10.298 23 -23 0 -6.462 -2.677 -12.291 -6.969 -16.469 z" style="opacity:0.1"/>
 </g>
 <path d="M 22 10 L 16 36 L 35 36 L 31.707031 21.732422 L 39 15 L 38 15 L 31.53125 20.970703 L 29 10 L 22 10 z " style="fill:#000;opacity:0.1;stroke:none"/>
 <g>
  <path d="m 21 9 7 0 6 26 -19 0 z" style="fill:#803300;stroke:none"/>
  <path d="m 22 10 5 0 4 16 -13 0 z" style="fill:#4d4d4d;stroke:none"/>
  <path d="m 24 26 0 -16 1 0 0 16 z" style="fill:#666;stroke:none"/>
  <path d="m 21 12 c 7.402 -4.04 16 2 16 2 l -12 11 -12 1 c 0 0 0.598 -9.962 8 -14 z" style="fill:url(#linearGradient3073);fill-opacity:1;stroke:none"/>
  <path d="m 24 26 13 -12 1 0 -13 12" style="fill:#999;stroke:none"/>
  <path transform="matrix(1.5,0,0,1,9.5,-1)" d="m 9 27 a 1 1 0 0 1 1 -1 1 1 0 0 1 1 1 l -1 0 z" style="fill:#999;fill-opacity:1;stroke:none"/>
 </g>
</svg>

<svg xmlns="http://www.w3.org/2000/svg" viewBox="0 0 48 48">
  <defs>
    <linearGradient id="a" y1="1" x2="0" y2="47" gradientUnits="userSpaceOnUse">
      <stop stop-color="#eb892d"/>
      <stop offset="1" stop-color="#e97f1b"/>
    </linearGradient>
    <linearGradient id="b" x1="37" y1="14" x2="14" y2="25" gradientUnits="userSpaceOnUse">
      <stop stop-color="#dcdcdc" stop-opacity=".706"/>
      <stop offset="1" stop-color="#969696" stop-opacity="0"/>
    </linearGradient>
  </defs>
  <path d="M36.31 5c5.859 4.062 9.688 10.831 9.688 18.5 0 12.426-10.07 22.5-22.5 22.5-7.669 0-14.438-3.828-18.5-9.688a23.24 23.24 0 0 0 3.781 4.969 22.923 22.923 0 0 0 15.469 5.969c12.703 0 23-10.298 23-23a22.92 22.92 0 0 0-5.969-15.469A23.216 23.216 0 0 0 36.31 5zm4.969 3.781A22.911 22.911 0 0 1 47.498 24.5c0 12.703-10.297 23-23 23a22.909 22.909 0 0 1-15.719-6.219C12.939 45.425 18.662 48 24.998 48c12.703 0 23-10.298 23-23 0-6.335-2.575-12.06-6.719-16.219z" opacity=".05"/>
  <path d="M41.28 8.781a22.923 22.923 0 0 1 5.969 15.469c0 12.703-10.297 23-23 23A22.92 22.92 0 0 1 8.78 41.281 22.911 22.911 0 0 0 24.499 47.5c12.703 0 23-10.298 23-23A22.909 22.909 0 0 0 41.28 8.781z" opacity=".1"/>
  <path d="M31.25 2.375C39.865 5.529 46 13.792 46 23.505c0 12.426-10.07 22.5-22.5 22.5-9.708 0-17.971-6.135-21.12-14.75a23 23 0 0 0 44.875-7 23 23 0 0 0-16-21.875z" opacity=".2"/>
  <path d="M24 1c12.703 0 23 10.297 23 23S36.703 47 24 47 1 36.703 1 24 11.297 1 24 1z" fill="url(#a)"/>
  <path d="M40.03 7.531A22.922 22.922 0 0 1 45.999 23c0 12.703-10.297 23-23 23A22.92 22.92 0 0 1 7.53 40.031C11.708 44.322 17.54 47 23.999 47c12.703 0 23-10.298 23-23 0-6.462-2.677-12.291-6.969-16.469z" opacity=".1"/>
  <path d="M22 10l-6 26h19l-3.293-14.268L39 15h-1l-6.469 5.97L29 10h-7z" opacity=".1"/>
  <g>
    <path d="M21 9h7l6 26H15z" fill="#803300"/>
    <path d="M22 10h5l4 16H18z" fill="#4d4d4d"/>
    <path d="M24 26V10h1v16z" fill="#666"/>
    <path d="M21 12c7.402-4.04 16 2 16 2L25 25l-12 1s.598-9.962 8-14z" fill="url(#b)"/>
    <path d="M24 26l13-12h1L25 26" fill="#999"/>
    <path d="M23 26a1.5 1 0 0 1 1.5-1 1.5 1 0 0 1 1.5 1h-1.5z" fill="#999"/>
  </g>
</svg>
